X:1
T:Puss in the Corner -- Jig
R:jig
B:Ryan's Mammoth Collection
Z: Contributed by Ray Davies, ray:davies99.freeserve.co.uk
M:6/8
K:D
vA/G/|F2D DFA|dAF AFD|EGE CEC|EGE CEG|
F2D DFA|dAF AFD|GBG EFG|AFD D2::
u(a/g/)|f2d dfa|afd dfa|e2c ceg|gec efg|
faf edc|dcB AFA|(B/c/)dB AFA|dAF D2:|
